X: 7684
T: Coleraine, The
R: jig
M: 6/8
K: Aminor
E|AAA ABc|Bee e2d|cBA ABc|B^GE E2 E|
A3 ABc|Bee e2d|cBA BA^G|AAA A2:|
|:B|c3 cdc|dgg g2 ^g|aed cBA|^Gee e2 E|
A^GA BAB|cde f2 f|edc BA^G|AAA A2:|

